!!!COM: Music21
!!!OTL: Danza de Cambados
!!!OMV: pezas_muineiras_danza-de-cambados_danza-de-cambados-partitura-1.musicxml
**kern
*part1
*staff1
*I"Bagpipes
*I'Bag
*clefG^2
*k[]
*M6/8
=1
!LO:TX:a:t=Allegro
*MM180
!LO:TX:a:t=[quarter]=180
4.r
8eeL
8ff
8ggJ
=||
4.aaT
8aaL
8gg
8ffJ
=
4.ggT
8ggL
8ff
8eeJ
=
4.ffT
8ffL
8ee
8ddJ
=
8bbL
8gg
8eeJ
8ee^L
8ff
8ggJ
=
4.aaT
8aaL
8gg
8ffJ
=
4.ggT
8ggL
8aa
8ggJ
!!linebreak:original
=
8bbL
8aa
8ggJ
8ffML
8ee
8ddJ
=
4.cc
8ee^L
8ff
8ggJ
=||
4.aaT
8aaL
8gg
8ffJ
=
4.ggT
8ggL
8ff
8eeJ
=
4.ffT
8ffL
8ee
8ddJ
=
8bbL
8gg
8eeJ
8ee^L
8ff
8ggJ
=
4.aaT
8aaL
8gg
8ffJ
!!linebreak:original
=
4.ggT
8ggL
8aa
8ggJ
!!linebreak:original
=
8bbL
8aa
8ggJ
8ffML
8ee
8ddJ
=
4.cc
8cccL
8bb
8aaJ
=||
8bbL
8gg
8eeJ
8ee^L
8gg
8bbJ
=
8aaML
8gg
8ffJ
8bbL
8aa
8ggJ
=
8aaL
8ff
8ddJ
8dd^L
8ff
8aaJ
=
8ggML
8ff
8eeJ
8cccL
8bb
8aaJ
!!linebreak:original
=
8bbL
8gg
8eeJ
8ee^L
8gg
8bbJ
=
8aaL
8gg
8ffJ
8ggL
8aa
8ggJ
=
8bbL
8aa
8ggJ
8ffML
8ee
8ddJ
=
4.cc
8cccL
8bb
8aaJ
=||
8bbL
8gg
8eeJ
8ee^L
8gg
8bbJ
=
8aaML
8gg
8ffJ
8bbL
8aa
8ggJ
!!pagebreak:original
=
8aaL
8ff
8ddJ
8dd^L
8ff
8aaJ
=
8ggML
8ff
8eeJ
8cccL
8bb
8aaJ
!!linebreak:original
=
8bbL
8gg
8eeJ
8ee^L
8gg
8bbJ
=
8aaL
8gg
8ffJ
8ggL
8aa
8ggJ
=
8bbL
8aa
8ggJ
8ffML
8ee
8ddJ
=||
4.cc
8ee^L
8ff
8ggJ
=||
8cc
8r
2r
==
*-
!!!system-decoration: s1,s2
